src/icons/sync.svg

<svg xmlns="http://www.w3.org/2000/svg"  viewBox="0 0 50 50" width="32px" height="32px"><path d="M 20 4 C 14.507813 4 10 8.507813 10 14 L 10 31.75 L 7.125 28.875 L 4.3125 31.71875 L 12 39.40625 L 19.6875 31.71875 L 16.875 28.90625 L 14 31.75 L 14 14 C 14 10.691406 16.691406 8 20 8 L 31 8 L 31 4 Z M 38 10.59375 L 30.28125 18.3125 L 33.125 21.125 L 36 18.25 L 36 36 C 36 39.308594 33.308594 42 30 42 L 19 42 L 19 46 L 30 46 C 35.492188 46 40 41.492188 40 36 L 40 18.25 L 42.875 21.125 L 45.6875 18.28125 Z"/></svg>

<svg role="img" viewBox="0 0 50 50" xmlns="http://www.w3.org/2000/svg"><path d="M20 4c-5.492 0-10 4.508-10 10v17.75l-2.875-2.875-2.812 2.844L12 39.406l7.688-7.687-2.813-2.813L14 31.75V14c0-3.309 2.691-6 6-6h11V4Zm18 6.594-7.719 7.719 2.844 2.812L36 18.25V36c0 3.309-2.691 6-6 6H19v4h11c5.492 0 10-4.508 10-10V18.25l2.875 2.875 2.813-2.844Z"/></svg>
